X: 40239
T: Tipsy Peg
R: hornpipe
M: 4/4
K: Gmajor
d2e2f2|:g>f g>f g>G- G>B|A>B c>d c>B A>G|B>d g>B d>g d>g|a>g f>e d>d (3def|
g>f g>f g>G- G>B|A>B c>d c>B A>G|B>d g>B d>g d>g|f>d f2 g2 (3def||
g>f g>f g>G- G>B|A>B c>^c d>B- B>B|A>B c>^c d>e f>g|a>g f>e d>d (3def|
g>f g>f g>G- G>B|A>B c>^c d>B- B>B|A>B c>^c d>e f>g|f>d f2 g2 a2||
b4 b>a g>f|e>^d e>d e>f g>^g|a2 (3aaa a>g f>e|(3efe d>^c d>d (3def|
g>f g>f g>G- G>B|A>B c>^c d>B- B>B|A>B c>^c d>e f>g|f>d f2 g2 a2|
^ab- b>a b>=a g>f|(3e>fe (3^def e>f g>^g|a2 (3aaa a>g f>e|(3efe d>^c d>d (3def|
g>f g>f g>d B>G|A>^G A>G A>B c>^c|d>^c d>c d>e f>g|1 (3fed (3cBA G2 (3def:|
3 "last time only" (3fed (3cBA (3GBd (3gdB|(3GDB, (3G,B,D (3GBd (3gbd'|g'4 z4||

